;FLAVOR:Marlin
;TIME:3399
;Filament used: 3.83574m
;Layer height: 0.15
;MINX:24.075
;MINY:59.263
;MINZ:0.3
;MAXX:176.78
;MAXY:148.736
;MAXZ:5.55
;Generated with Cura_SteamEngine 4.13.1
M140 S60
M105
M190 S60
M104 S200
M105
M109 S200
M82 ;absolute extrusion mode
G21 ;metric values
 G90 ;absolute positioning
 M82 ;set extruder to absolute mode
 M107 ;start with the fan off
 G28 X0 Y0 ;move X/Y to min endstops
 G28 Z0 ;move Z to min endstops
 G1 Z15.0 F120 ;move the platform down 15mm
 G92 E0 ;zero the extruded length
 G1 F200 E6 ;extrude 6 mm of feed stock
 G92 E0 ;zero the extruded length again
 G1 F120 
 ;Put printing message on LCD screen
 M117 Printing...
G92 E0
G92 E0
G1 F1500 E-6.5
;LAYER_COUNT:36
;LAYER:0
M107
G0 F3600 X29.593 Y90.478 Z0.3
;TYPE:SKIRT
G1 F1500 E0
G1 F3000 X30.359 Y90.286 E0.0394
G1 X31.14 Y90.173 E0.07877
G1 X31.868 Y90.139 E0.11513
G1 X168.99 Y90.139 E6.95617
G1 X169.779 Y90.179 E6.99559
G1 X170.559 Y90.298 E7.03495
G1 X171.324 Y90.496 E7.07437
G1 X172.064 Y90.77 E7.11374
G1 X172.773 Y91.118 E7.15315
G1 X173.444 Y91.536 E7.19259
G1 X174.068 Y92.019 E7.23195
G1 X174.641 Y92.562 E7.27134
G1 X175.156 Y93.161 E7.31075
G1 X175.607 Y93.809 E7.35014
G1 X175.991 Y94.5 E7.38958
G1 X176.303 Y95.225 E7.42895
G1 X176.54 Y95.978 E7.46834
G1 X176.699 Y96.752 E7.50776
G1 X176.78 Y97.537 E7.54713
G1 X176.78 Y98.327 E7.58655
G1 X176.701 Y99.113 E7.62596
G1 X176.543 Y99.886 E7.66532
G1 X176.307 Y100.64 E7.70474
G1 X175.997 Y101.366 E7.74412
G1 X175.614 Y102.057 E7.78354
G1 X175.164 Y102.706 E7.82294
G1 X174.65 Y103.306 E7.86235
G1 X174.125 Y103.81 E7.89866
G1 X140.383 Y133.321 E10.13507
G1 X139.763 Y133.81 E10.17446
G1 X139.097 Y134.234 E10.21385
G1 X138.391 Y134.589 E10.25328
G1 X137.653 Y134.87 E10.29267
G1 X136.891 Y135.075 E10.33204
G1 X136.111 Y135.202 E10.37147
G1 X135.323 Y135.25 E10.41085
G1 X134.534 Y135.217 E10.45025
G1 X133.752 Y135.105 E10.48966
G1 X132.986 Y134.915 E10.52904
G1 X132.243 Y134.648 E10.56843
G1 X131.53 Y134.307 E10.60786
G1 X130.856 Y133.896 E10.64724
G1 X130.113 Y133.321 E10.69412
G1 X122.205 Y126.405 E11.21824
G1 X106.515 Y145.838 E12.46432
G1 X105.988 Y146.426 E12.50371
G1 X105.405 Y146.959 E12.54312
G1 X104.771 Y147.429 E12.58249
G1 X104.092 Y147.833 E12.62191
G1 X103.376 Y148.167 E12.66133
G1 X102.63 Y148.426 E12.70073
G1 X101.862 Y148.608 E12.7401
G1 X101.079 Y148.712 E12.77951
G1 X100.29 Y148.736 E12.81889
G1 X99.502 Y148.681 E12.8583
G1 X98.724 Y148.546 E12.8977
G1 X97.964 Y148.333 E12.93707
G1 X97.229 Y148.044 E12.97647
G1 X96.527 Y147.682 E13.01588
G1 X95.865 Y147.251 E13.05529
G1 X95.25 Y146.756 E13.09468
G1 X94.689 Y146.2 E13.13408
G1 X94.378 Y145.839 E13.15785
G1 X78.671 Y126.389 E14.40512
G1 X70.746 Y133.321 E14.93041
G1 X70.126 Y133.81 E14.96981
G1 X69.46 Y134.234 E15.0092
G1 X68.755 Y134.589 E15.04858
G1 X68.017 Y134.87 E15.08797
G1 X67.254 Y135.075 E15.12739
G1 X66.475 Y135.202 E15.16677
G1 X65.686 Y135.25 E15.2062
G1 X64.897 Y135.217 E15.2456
G1 X64.116 Y135.105 E15.28496
G1 X63.349 Y134.915 E15.32439
G1 X62.606 Y134.648 E15.36378
G1 X61.894 Y134.307 E15.40316
G1 X61.219 Y133.896 E15.44259
G1 X60.476 Y133.321 E15.48946
G1 X26.733 Y103.81 E17.72591
G1 X26.166 Y103.261 E17.76528
G1 X25.657 Y102.657 E17.80469
G1 X25.212 Y102.005 E17.84407
G1 X24.835 Y101.311 E17.88347
G1 X24.53 Y100.583 E17.92285
G1 X24.3 Y99.827 E17.96228
G1 X24.148 Y99.052 E18.00168
G1 X24.075 Y98.266 E18.04106
G1 X24.082 Y97.476 E18.08047
G1 X24.168 Y96.691 E18.11987
G1 X24.334 Y95.919 E18.15927
G1 X24.577 Y95.168 E18.19865
G1 X24.894 Y94.445 E18.23803
G1 X25.283 Y93.758 E18.27742
G1 X25.74 Y93.113 E18.31686
G1 X26.259 Y92.518 E18.35625
G1 X26.836 Y91.979 E18.39564
G1 X27.465 Y91.501 E18.43506
G1 X28.138 Y91.089 E18.47442
G1 X28.85 Y90.747 E18.51383
G1 X29.593 Y90.478 E18.55325
G0 F3600 X29.377 Y90.971
G1 F3000 X30.114 Y90.75 E18.59164
G1 X30.87 Y90.607 E18.63003
G1 X31.868 Y90.539 E18.67993
G1 X168.99 Y90.539 E25.52098
G1 X169.758 Y90.579 E25.55934
G1 X170.518 Y90.698 E25.59772
G1 X171.261 Y90.896 E25.63609
G1 X171.98 Y91.17 E25.67447
G1 X172.666 Y91.517 E25.71283
G1 X173.313 Y91.933 E25.7512
G1 X173.913 Y92.414 E25.78957
G1 X174.46 Y92.955 E25.82795
G1 X174.948 Y93.55 E25.86634
G1 X175.371 Y94.192 E25.9047
G1 X175.726 Y94.875 E25.9431
G1 X176.007 Y95.59 E25.98143
G1 X176.213 Y96.332 E26.01985
G1 X176.341 Y97.09 E26.0582
G1 X176.39 Y97.858 E26.09659
G1 X176.358 Y98.626 E26.13494
G1 X176.247 Y99.387 E26.17331
G1 X176.057 Y100.133 E26.21172
G1 X175.791 Y100.854 E26.25006
G1 X175.452 Y101.545 E26.28846
G1 X175.043 Y102.196 E26.32681
G1 X174.568 Y102.801 E26.36519
G1 X173.862 Y103.509 E26.41507
G1 X140.12 Y133.02 E28.65148
G1 X139.515 Y133.496 E28.68988
G1 X138.865 Y133.906 E28.72823
G1 X138.175 Y134.247 E28.76662
G1 X137.454 Y134.514 E28.80498
G1 X136.709 Y134.704 E28.84334
G1 X135.948 Y134.817 E28.88172
G1 X135.179 Y134.85 E28.92012
G1 X134.411 Y134.803 E28.95851
G1 X133.653 Y134.676 E28.99685
G1 X132.911 Y134.471 E29.03526
G1 X132.195 Y134.191 E29.07362
G1 X131.512 Y133.838 E29.11197
G1 X130.869 Y133.415 E29.15037
G1 X130.376 Y133.02 E29.18189
G1 X122.156 Y125.83 E29.72673
G1 X106.204 Y145.587 E30.99359
G1 X105.69 Y146.159 E31.03196
G1 X105.12 Y146.675 E31.07032
G1 X104.499 Y147.129 E31.1087
G1 X103.834 Y147.517 E31.14711
G1 X103.133 Y147.833 E31.18547
G1 X102.403 Y148.075 E31.22384
G1 X101.652 Y148.239 E31.26219
G1 X100.887 Y148.325 E31.3006
G1 X100.118 Y148.331 E31.33896
G1 X99.353 Y148.257 E31.37731
G1 X98.599 Y148.104 E31.41569
G1 X97.865 Y147.873 E31.45408
G1 X97.159 Y147.568 E31.49245
G1 X96.489 Y147.191 E31.5308
G1 X95.861 Y146.746 E31.5692
G1 X95.283 Y146.239 E31.60756
G1 X94.689 Y145.587 E31.65157
G1 X78.721 Y125.814 E32.91955
G1 X70.483 Y133.02 E33.46559
G1 X69.879 Y133.496 E33.50396
G1 X69.228 Y133.906 E33.54234
G1 X68.538 Y134.246 E33.58072
G1 X67.817 Y134.514 E33.6191
G1 X67.072 Y134.704 E33.65745
G1 X66.311 Y134.817 E33.69584
G1 X65.543 Y134.85 E33.73419
G1 X64.775 Y134.803 E33.77258
G1 X64.016 Y134.676 E33.81097
G1 X63.275 Y134.472 E33.84931
G1 X62.559 Y134.191 E33.88769
G1 X61.875 Y133.838 E33.92609
G1 X61.232 Y133.416 E33.96446
G1 X60.739 Y133.02 E33.99601
G1 X26.996 Y103.509 E36.23245
G1 X26.445 Y102.973 E36.2708
G1 X25.951 Y102.383 E36.30919
G1 X25.522 Y101.745 E36.34755
G1 X25.161 Y101.066 E36.38591
G1 X24.873 Y100.353 E36.42428
G1 X24.66 Y99.614 E36.46265
G1 X24.525 Y98.856 E36.50106
G1 X24.47 Y98.089 E36.53942
G1 X24.494 Y97.321 E36.57776
G1 X24.598 Y96.558 E36.61618
G1 X24.78 Y95.811 E36.65454
G1 X25.04 Y95.087 E36.69291
G1 X25.373 Y94.394 E36.73127
G1 X25.776 Y93.739 E36.76964
G1 X26.245 Y93.129 E36.80803
G1 X26.774 Y92.571 E36.84639
G1 X27.359 Y92.071 E36.88478
G1 X27.992 Y91.635 E36.92313
G1 X28.668 Y91.267 E36.96153
G1 X29.377 Y90.971 E36.99986
G0 F3600 X29.902 Y91.221
G1 F3000 X30.63 Y91.049 E37.03718
G1 X31.373 Y90.957 E37.07453
G1 X31.868 Y90.939 E37.09924
G1 X168.99 Y90.939 E43.94029
G1 X169.737 Y90.979 E43.97761
G1 X170.475 Y91.098 E44.0149
G1 X171.197 Y91.296 E44.05225
G1 X171.893 Y91.569 E44.08955
G1 X172.556 Y91.916 E44.12689
G1 X173.179 Y92.331 E44.16423
G1 X173.753 Y92.81 E44.20153
G1 X174.274 Y93.347 E44.23886
G1 X174.733 Y93.937 E44.27615
G1 X175.128 Y94.573 E44.31351
G1 X175.452 Y95.247 E44.35081
G1 X175.702 Y95.952 E44.38813
G1 X175.876 Y96.68 E44.42548
G1 X175.971 Y97.422 E44.4628
G1 X175.986 Y98.17 E44.50012
G1 X175.922 Y98.915 E44.53743
G1 X175.778 Y99.649 E44.57475
G1 X175.557 Y100.364 E44.61208
G1 X175.26 Y101.051 E44.64942
G1 X174.893 Y101.702 E44.68671
G1 X174.457 Y102.31 E44.72403
G1 X173.96 Y102.869 E44.76135
G1 X173.598 Y103.208 E44.78609
G1 X139.856 Y132.719 E47.0225
G1 X139.268 Y133.181 E47.05981
G1 X138.633 Y133.577 E47.09714
G1 X137.96 Y133.903 E47.13445
G1 X137.256 Y134.156 E47.17177
G1 X136.529 Y134.332 E47.20909
G1 X135.787 Y134.429 E47.24642
G1 X135.039 Y134.447 E47.28375
G1 X134.294 Y134.385 E47.32105
G1 X133.559 Y134.243 E47.3584
G1 X132.844 Y134.024 E47.3957
G1 X132.156 Y133.73 E47.43303
G1 X131.504 Y133.364 E47.47033
G1 X130.64 Y132.719 E47.52413
G1 X122.105 Y125.254 E48.08983
G1 X105.892 Y145.335 E49.37745
G1 X105.392 Y145.891 E49.41476
G1 X104.835 Y146.391 E49.4521
G1 X104.228 Y146.828 E49.48941
G1 X103.578 Y147.198 E49.52673
G1 X102.892 Y147.497 E49.56406
G1 X102.178 Y147.72 E49.60138
G1 X101.445 Y147.866 E49.63867
G1 X100.7 Y147.933 E49.67599
G1 X99.952 Y147.921 E49.71331
G1 X99.209 Y147.828 E49.75067
G1 X98.481 Y147.657 E49.78798
G1 X97.775 Y147.409 E49.82531
G1 X97.1 Y147.087 E49.86262
G1 X96.463 Y146.694 E49.89996
G1 X95.872 Y146.237 E49.93723
G1 X95.332 Y145.718 E49.9746
G1 X95 Y145.336 E49.99985
G1 X78.771 Y125.24 E51.28855
G1 X70.22 Y132.719 E51.85532
G1 X69.631 Y133.181 E51.89266
G1 X68.997 Y133.577 E51.92996
G1 X68.323 Y133.903 E51.96731
G1 X67.619 Y134.156 E52.00463
G1 X66.892 Y134.332 E52.04195
G1 X66.151 Y134.429 E52.07923
G1 X65.403 Y134.447 E52.11656
G1 X64.657 Y134.385 E52.15391
G1 X63.923 Y134.243 E52.19121
G1 X63.207 Y134.024 E52.22856
G1 X62.52 Y133.73 E52.26584
G1 X61.867 Y133.365 E52.30317
G1 X61.003 Y132.719 E52.35699
G1 X27.26 Y103.208 E54.59343
G1 X26.724 Y102.686 E54.63076
G1 X26.247 Y102.11 E54.66807
G1 X25.833 Y101.486 E54.70543
G1 X25.489 Y100.822 E54.74274
G1 X25.218 Y100.125 E54.78005
G1 X25.023 Y99.403 E54.81736
G1 X24.906 Y98.664 E54.85469
G1 X24.868 Y97.917 E54.892
G1 X24.91 Y97.17 E54.92933
G1 X25.032 Y96.432 E54.96665
G1 X25.232 Y95.711 E55.00398
G1 X25.508 Y95.016 E55.04129
G1 X25.856 Y94.354 E55.0786
G1 X26.273 Y93.733 E55.11592
G1 X26.754 Y93.16 E55.15324
G1 X27.293 Y92.641 E55.19057
G1 X27.884 Y92.183 E55.22787
G1 X28.521 Y91.791 E55.26519
G1 X29.197 Y91.469 E55.30255
G1 X29.902 Y91.221 E55.33983
G0 F3600 X29.724 Y91.697
G1 F3000 X30.423 Y91.499 E55.37608
G1 X31.139 Y91.379 E55.4123
G1 X31.868 Y91.339 E55.44872
G1 X168.99 Y91.339 E62.28977
G1 X169.715 Y91.379 E62.32599
G1 X170.432 Y91.498 E62.36225
G1 X171.131 Y91.696 E62.3985
G1 X171.804 Y91.969 E62.43473
G1 X172.443 Y92.314 E62.47096
G1 X173.04 Y92.728 E62.50721
G1 X173.588 Y93.204 E62.54342
G1 X174.081 Y93.738 E62.57968
G1 X174.511 Y94.323 E62.6159
G1 X174.875 Y94.952 E62.65216
G1 X175.168 Y95.617 E62.68841
G1 X175.386 Y96.31 E62.72466
G1 X175.526 Y97.022 E62.76086
G1 X175.587 Y97.746 E62.79711
G1 X175.568 Y98.472 E62.83334
G1 X175.47 Y99.192 E62.86959
G1 X175.293 Y99.896 E62.90581
G1 X175.04 Y100.577 E62.94205
G1 X174.713 Y101.226 E62.97831
G1 X174.317 Y101.835 E63.01455
G1 X173.857 Y102.397 E63.05078
G1 X173.335 Y102.907 E63.08719
G1 X139.593 Y132.418 E65.3236
G1 X139.021 Y132.865 E65.35982
G1 X138.403 Y133.247 E65.39606
G1 X137.747 Y133.559 E65.4323
G1 X137.06 Y133.796 E65.46856
G1 X136.352 Y133.957 E65.50478
G1 X135.63 Y134.039 E65.54104
G1 X134.904 Y134.041 E65.57726
G1 X134.182 Y133.963 E65.61349
G1 X133.472 Y133.807 E65.64975
G1 X132.785 Y133.573 E65.68596
G1 X132.127 Y133.265 E65.72221
G1 X131.507 Y132.887 E65.75844
G1 X130.903 Y132.418 E65.79659
G1 X122.055 Y124.68 E66.38301
G1 X105.581 Y145.084 E67.69135
G1 X105.094 Y145.623 E67.72759
G1 X104.551 Y146.106 E67.76385
G1 X103.959 Y146.526 E67.80006
G1 X103.323 Y146.878 E67.83633
G1 X102.653 Y147.158 E67.87255
G1 X101.956 Y147.363 E67.9088
G1 X101.241 Y147.49 E67.94503
G1 X100.517 Y147.538 E67.98123
G1 X99.791 Y147.505 E68.01749
G1 X99.073 Y147.394 E68.05373
G1 X98.372 Y147.204 E68.08997
G1 X97.696 Y146.938 E68.12621
G1 X97.053 Y146.599 E68.16248
G1 X96.452 Y146.192 E68.19869
G1 X95.899 Y145.722 E68.2349
G1 X95.311 Y145.085 E68.27815
G1 X78.82 Y124.665 E69.58764
G1 X69.956 Y132.418 E70.17516
G1 X69.384 Y132.865 E70.21137
G1 X68.766 Y133.247 E70.24762
G1 X68.11 Y133.559 E70.28386
G1 X67.424 Y133.796 E70.32007
G1 X66.715 Y133.957 E70.35634
G1 X65.994 Y134.039 E70.39255
G1 X65.267 Y134.041 E70.42882
G1 X64.545 Y133.963 E70.46505
G1 X63.836 Y133.807 E70.50127
G1 X63.148 Y133.573 E70.53752
G1 X62.49 Y133.265 E70.57377
G1 X61.87 Y132.887 E70.60999
G1 X61.266 Y132.418 E70.64815
G1 X27.523 Y102.907 E72.88459
G1 X27.003 Y102.399 E72.92086
G1 X26.543 Y101.838 E72.95705
G1 X26.147 Y101.229 E72.99329
G1 X25.82 Y100.58 E73.02955
G1 X25.566 Y99.9 E73.06577
G1 X25.389 Y99.195 E73.10203
G1 X25.29 Y98.476 E73.13824
G1 X25.271 Y97.75 E73.17447
G1 X25.331 Y97.026 E73.21072
G1 X25.471 Y96.313 E73.24697
G1 X25.689 Y95.62 E73.28321
G1 X25.981 Y94.955 E73.31945
G1 X26.345 Y94.326 E73.3557
G1 X26.775 Y93.741 E73.39192
G1 X27.267 Y93.207 E73.42815
G1 X27.815 Y92.73 E73.4644
G1 X28.412 Y92.316 E73.50064
G1 X29.051 Y91.97 E73.53689
G1 X29.724 Y91.697 E73.57313
G0 F3600 X30.247 Y91.955
G1 F3000 X30.936 Y91.809 E73.60827
G1 X31.868 Y91.739 E73.65489
G1 X168.99 Y91.739 E80.49594
G1 X169.693 Y91.779 E80.53107
G1 X170.387 Y91.898 E80.5662
G1 X171.062 Y92.096 E80.60129
G1 X171.711 Y92.368 E80.6364
G1 X172.325 Y92.713 E80.67154
G1 X172.896 Y93.124 E80.70664
G1 X173.417 Y93.598 E80.74178
G1 X173.881 Y94.128 E80.77692
G1 X174.281 Y94.707 E80.81203
G1 X174.613 Y95.328 E80.84716
G1 X174.873 Y95.982 E80.88227
G1 X175.057 Y96.662 E80.91742
G1 X175.163 Y97.358 E80.95254
G1 X175.189 Y98.061 E80.98764
G1 X175.135 Y98.763 E81.02277
G1 X175.002 Y99.454 E81.05787
G1 X174.791 Y100.126 E81.09301
G1 X174.506 Y100.77 E81.12815
G1 X174.15 Y101.377 E81.16325
G1 X173.727 Y101.94 E81.19839
G1 X173.072 Y102.606 E81.24499
G1 X139.33 Y132.117 E83.4814
G1 X138.774 Y132.55 E83.51656
G1 X138.173 Y132.916 E83.55166
G1 X137.535 Y133.213 E83.58677
G1 X136.867 Y133.435 E83.62189
G1 X136.178 Y133.58 E83.65702
G1 X135.477 Y133.646 E83.69215
G1 X134.773 Y133.632 E83.72728
G1 X134.076 Y133.538 E83.76236
G1 X133.393 Y133.366 E83.7975
G1 X132.734 Y133.118 E83.83263
G1 X132.108 Y132.796 E83.86775
G1 X131.522 Y132.406 E83.90287
G1 X131.166 Y132.117 E83.92575
G1 X122.006 Y124.105 E84.53289
G1 X105.27 Y144.833 E85.86201
G1 X104.797 Y145.355 E85.89716
G1 X104.269 Y145.819 E85.93223
G1 X103.691 Y146.221 E85.96735
G1 X103.071 Y146.555 E86.00249
G1 X102.417 Y146.816 E86.03762
G1 X101.738 Y147.002 E86.07274
G1 X101.042 Y147.109 E86.10787
G1 X100.339 Y147.137 E86.14297
G1 X99.637 Y147.085 E86.17809
G1 X98.945 Y146.954 E86.21323
G1 X98.273 Y146.745 E86.24834
G1 X97.629 Y146.461 E86.28345
G1 X97.021 Y146.106 E86.31858
G1 X96.457 Y145.684 E86.35372
G1 X95.945 Y145.201 E86.38884
G1 X95.622 Y144.833 E86.41327
G1 X78.87 Y124.09 E87.74348
G1 X69.693 Y132.117 E88.35175
G1 X69.138 Y132.549 E88.38684
G1 X68.537 Y132.916 E88.42197
G1 X67.898 Y133.213 E88.45712
G1 X67.23 Y133.435 E88.49224
G1 X66.541 Y133.58 E88.52737
G1 X65.84 Y133.646 E88.5625
G1 X65.137 Y133.632 E88.59758
G1 X64.439 Y133.538 E88.63271
G1 X63.756 Y133.366 E88.66785
G1 X63.098 Y133.118 E88.70294
G1 X62.471 Y132.796 E88.7381
G1 X61.885 Y132.406 E88.77322
G1 X61.529 Y132.117 E88.7961
G1 X27.786 Y102.606 E91.03254
G1 X27.284 Y102.113 E91.06764
G1 X26.84 Y101.567 E91.10275
G1 X26.461 Y100.973 E91.13791
G1 X26.152 Y100.341 E91.173
G1 X25.917 Y99.677 E91.20814
G1 X25.758 Y98.991 E91.24328
G1 X25.678 Y98.292 E91.27838
G1 X25.678 Y97.588 E91.3135
G1 X25.758 Y96.888 E91.34865
G1 X25.916 Y96.203 E91.38372
G1 X26.151 Y95.539 E91.41886
G1 X26.46 Y94.906 E91.45401
G1 X26.839 Y94.313 E91.48912
G1 X27.282 Y93.766 E91.52423
G1 X27.785 Y93.273 E91.55937
G1 X28.34 Y92.84 E91.59449
G1 X28.941 Y92.473 E91.62962
G1 X29.579 Y92.177 E91.66471
G1 X30.247 Y91.955 E91.69983
G0 F3600 X30.106 Y92.413
G1 F3000 X30.766 Y92.245 E91.73381
G1 X31.44 Y92.155 E91.76773
G1 X31.868 Y92.139 E91.7891
G1 X168.99 Y92.139 E98.63015
G1 X169.67 Y92.179 E98.66413
G1 X170.34 Y92.298 E98.69808
G1 X170.992 Y92.495 E98.73206
G1 X171.616 Y92.767 E98.76602
G1 X172.204 Y93.111 E98.80001
G1 X172.748 Y93.521 E98.83399
G1 X173.239 Y93.992 E98.86794
G1 X173.673 Y94.517 E98.90192
G1 X174.042 Y95.089 E98.93588
G1 X174.341 Y95.701 E98.96986
G1 X174.566 Y96.343 E99.0038
G1 X174.715 Y97.008 E99.0378
G1 X174.784 Y97.685 E99.07175
G1 X174.774 Y98.366 E99.10573
G1 X174.684 Y99.041 E99.1397
G1 X174.516 Y99.7 E99.17363
G1 X174.272 Y100.336 E99.20762
G1 X173.954 Y100.938 E99.24159
G1 X173.569 Y101.499 E99.27553
G1 X173.12 Y102.012 E99.30954
G1 X172.808 Y102.305 E99.3309
G1 X139.066 Y131.816 E101.5673
G1 X138.528 Y132.233 E101.60126
