;FLAVOR:Marlin
;TIME:948
;Filament used: 1.16933m
;Layer height: 0.2
;MINX:54.966
;MINY:82.9
;MINZ:0.3
;MAXX:145.557
;MAXY:117.087
;MAXZ:4.5
;Generated with Cura_SteamEngine 4.13.1
M140 S60
M105
M190 S60
M104 S200
M105
M109 S200
M82 ;absolute extrusion mode
G21 ;metric values
 G90 ;absolute positioning
 M82 ;set extruder to absolute mode
 M107 ;start with the fan off
 G28 X0 Y0 ;move X/Y to min endstops
 G28 Z0 ;move Z to min endstops
 G1 Z15.0 F120 ;move the platform down 15mm
 G92 E0 ;zero the extruded length
 G1 F200 E6 ;extrude 6 mm of feed stock
 G92 E0 ;zero the extruded length again
 G1 F120 
 ;Put printing message on LCD screen
 M117 Printing...
G92 E0
G92 E0
G1 F1500 E-6.5
;LAYER_COUNT:22
;LAYER:0
M107
G0 F3600 X56.511 Y83.551 Z0.3
;TYPE:SKIRT
G1 F1500 E0
G1 F3000 X56.973 Y83.28 E0.02672
G1 X57.471 Y83.081 E0.05348
G1 X57.993 Y82.957 E0.08024
G1 X58.498 Y82.913 E0.10553
G1 X59.291 Y82.9 E0.1451
G1 X141.34 Y82.9 E4.23854
G1 X142.018 Y82.91 E4.27237
G1 X142.552 Y82.958 E4.29912
G1 X143.073 Y83.085 E4.32588
G1 X143.57 Y83.288 E4.35266
G1 X144.031 Y83.562 E4.37942
G1 X144.446 Y83.901 E4.40615
G1 X144.806 Y84.299 E4.43292
G1 X145.103 Y84.745 E4.45966
G1 X145.33 Y85.231 E4.48642
G1 X145.483 Y85.745 E4.51317
G1 X145.557 Y86.276 E4.53992
G1 X145.552 Y86.812 E4.56666
G1 X145.468 Y87.342 E4.59344
G1 X145.305 Y87.853 E4.62019
G1 X145.068 Y88.334 E4.64695
G1 X144.763 Y88.775 E4.6737
G1 X144.418 Y89.144 E4.6989
G1 X143.824 Y89.698 E4.73942
G1 X124.379 Y107.241 E6.046
G1 X123.825 Y107.727 E6.08277
G1 X123.397 Y108.05 E6.10952
G1 X122.925 Y108.305 E6.13628
G1 X122.398 Y108.494 E6.16421
G1 X119.658 Y109.285 E6.3065
G1 X117.041 Y110.121 E6.44356
G1 X114.491 Y111.02 E6.57845
G1 X111.97 Y111.988 E6.71318
G1 X109.395 Y113.059 E6.85232
G1 X106.95 Y114.161 E6.98611
G1 X104.477 Y115.358 E7.12319
G1 X102.124 Y116.586 E7.2556
G1 X101.887 Y116.705 E7.26883
G1 X101.392 Y116.909 E7.29554
G1 X100.871 Y117.038 E7.32232
G1 X100.337 Y117.087 E7.34908
G1 X99.801 Y117.057 E7.37586
G1 X99.276 Y116.948 E7.40261
G1 X98.61 Y116.681 E7.43841
G1 X96.109 Y115.379 E7.57908
G1 X93.634 Y114.18 E7.71628
G1 X91.132 Y113.054 E7.85317
G1 X88.593 Y111.994 E7.99043
G1 X86.094 Y111.038 E8.12392
G1 X83.527 Y110.136 E8.25966
G1 X80.911 Y109.299 E8.3967
G1 X78.522 Y108.604 E8.52082
G1 X78.124 Y108.495 E8.54141
G1 X77.619 Y108.315 E8.56816
G1 X77.146 Y108.062 E8.59492
G1 X76.652 Y107.69 E8.62577
G1 X76.171 Y107.267 E8.65773
G1 X56.591 Y89.6 E9.97345
G1 X56.109 Y89.153 E10.00625
G1 X55.744 Y88.76 E10.033
G1 X55.442 Y88.317 E10.05975
G1 X55.208 Y87.834 E10.08653
G1 X55.049 Y87.322 E10.11328
G1 X54.968 Y86.792 E10.14003
G1 X54.966 Y86.256 E10.16677
G1 X55.044 Y85.725 E10.19354
G1 X55.2 Y85.212 E10.22029
G1 X55.431 Y84.728 E10.24705
G1 X55.731 Y84.283 E10.27382
G1 X56.093 Y83.888 E10.30056
G1 X56.511 Y83.551 E10.32734
G0 F3600 X56.61 Y83.974
G1 F3000 X57.034 Y83.699 E10.35256
G1 X57.496 Y83.494 E10.37777
G1 X57.985 Y83.365 E10.403
G1 X58.505 Y83.313 E10.42908
G1 X59.298 Y83.3 E10.46864
G1 X141.334 Y83.3 E14.56144
G1 X142.012 Y83.31 E14.59527
G1 X142.516 Y83.358 E14.62052
G1 X143.005 Y83.484 E14.64572
G1 X143.469 Y83.685 E14.67094
G1 X143.895 Y83.957 E14.69616
G1 X144.273 Y84.293 E14.72139
G1 X144.593 Y84.684 E14.7466
G1 X144.848 Y85.121 E14.77184
G1 X145.031 Y85.592 E14.79705
G1 X145.137 Y86.087 E14.82231
G1 X145.164 Y86.592 E14.84754
G1 X145.111 Y87.094 E14.87272
G1 X144.98 Y87.583 E14.89798
G1 X144.773 Y88.044 E14.92319
G1 X144.497 Y88.467 E14.94839
G1 X144.146 Y88.852 E14.97438
G1 X143.556 Y89.401 E15.01459
G1 X124.115 Y106.941 E16.32092
G1 X123.561 Y107.427 E16.35768
G1 X123.156 Y107.729 E16.38289
G1 X122.708 Y107.964 E16.40813
G1 X122.197 Y108.134 E16.43499
G1 X119.53 Y108.906 E16.57351
G1 X116.929 Y109.737 E16.70974
G1 X114.331 Y110.652 E16.84716
G1 X111.822 Y111.616 E16.98125
G1 X109.273 Y112.677 E17.119
G1 X106.761 Y113.808 E17.25644
G1 X104.31 Y114.995 E17.39231
G1 X101.945 Y116.229 E17.52539
G1 X101.708 Y116.348 E17.53862
G1 X101.24 Y116.538 E17.56382
G1 X100.747 Y116.653 E17.58908
G1 X100.243 Y116.688 E17.61429
G1 X99.739 Y116.643 E17.63953
G1 X99.249 Y116.52 E17.66474
G1 X98.795 Y116.327 E17.68935
G1 X96.261 Y115.008 E17.83187
G1 X93.808 Y113.82 E17.96785
G1 X91.301 Y112.691 E18.10502
G1 X88.753 Y111.628 E18.24276
G1 X86.222 Y110.659 E18.37797
G1 X83.645 Y109.753 E18.51425
G1 X81.03 Y108.917 E18.65122
G1 X78.606 Y108.212 E18.77716
G1 X78.23 Y108.109 E18.79661
G1 X77.754 Y107.937 E18.82186
G1 X77.312 Y107.693 E18.84705
G1 X76.916 Y107.39 E18.87193
G1 X76.439 Y106.97 E18.90364
G1 X56.863 Y89.306 E20.21911
G1 X56.381 Y88.859 E20.2519
G1 X56.039 Y88.487 E20.27711
G1 X55.759 Y88.066 E20.30234
G1 X55.549 Y87.606 E20.32757
G1 X55.415 Y87.119 E20.35277
G1 X55.359 Y86.616 E20.37802
G1 X55.382 Y86.111 E20.40324
G1 X55.485 Y85.616 E20.42846
G1 X55.665 Y85.144 E20.45366
G1 X55.917 Y84.705 E20.47892
G1 X56.234 Y84.312 E20.50411
G1 X56.61 Y83.974 E20.52933
G1 F1500 E14.02933
;MESH:Surprising Wluff-Kup.stl
G0 F3600 X59.725 Y85.835
G0 X59.725 Y86.911
G0 X112.849 Y96.457
;TYPE:WALL-INNER
G1 F1500 E20.52933
G1 F3000 X100.272 Y112.527 E21.54742
G1 X99.874 Y112.018 E21.57965
G1 X107.459 Y102.458 E22.18849
G1 X107.132 Y101.78 E22.22604
G1 X106.332 Y101.78 E22.26596
G1 X103.058 Y103.119 E22.44243
G1 X99.784 Y101.78 E22.6189
G1 X99.422 Y101.78 E22.63696
G1 X96.143 Y103.119 E22.81367
G1 X92.87 Y101.78 E22.99009
G1 X92.089 Y101.78 E23.02906
G1 X92.001 Y101.961 E23.0391
G1 X87.685 Y96.448 E23.3884
G1 X79.066 Y104.222 E23.96748
G1 X78.76 Y103.946 E23.98804
G1 X85.079 Y97.763 E24.42911
G1 X84.773 Y97.016 E24.46938
G1 X84.02 Y97.016 E24.50695
G1 X81.29 Y97.885 E24.64988
G1 X78.56 Y97.016 E24.79282
G1 X78.258 Y97.016 E24.80788
G1 X75.528 Y97.884 E24.9508
G1 X72.799 Y97.016 E25.09367
G1 X72.059 Y97.016 E25.13059
G1 X71.795 Y97.661 E25.16536
G1 X60.089 Y87.1 E25.95193
G1 X139.913 Y87.1 E29.93436
G1 X140.433 Y87.1 E29.96031
G1 X140.047 Y87.448 E29.97412
G1 X121.456 Y104.222 E31.22336
G1 X121.149 Y103.945 E31.24399
G1 X127.467 Y97.763 E31.68499
G1 X127.161 Y97.016 E31.72526
G1 X126.408 Y97.016 E31.76283
G1 X123.678 Y97.885 E31.90576
G1 X120.948 Y97.016 E32.0487
G1 X120.646 Y97.016 E32.06376
G1 X117.916 Y97.885 E32.2067
G1 X115.186 Y97.016 E32.34963
G1 X114.447 Y97.016 E32.3865
G1 X114.183 Y97.661 E32.42127
G1 X112.849 Y96.457 E32.51092
G0 F3600 X112.9 Y97.041
;TYPE:WALL-OUTER
G1 F3000 X100.272 Y113.176 E33.53313
G1 X99.308 Y111.944 E33.61117
G1 X91.989 Y102.595 E34.20353
G1 X87.634 Y97.032 E34.556
G1 X79.066 Y104.761 E35.13168
G1 X78.192 Y103.972 E35.19042
G1 X59.049 Y86.7 E36.47676
G1 X140.954 Y86.7 E40.56301
G1 X141.474 Y86.7 E40.58896
G1 X141.088 Y87.048 E40.60277
G1 X121.456 Y104.761 E41.92195
G1 X120.58 Y103.971 E41.9808
G1 X112.9 Y97.041 E42.49689
G0 F3600 X112.777 Y97.198
G0 X112.543 Y97.014
G0 X120.733 Y103.794
G0 X120.803 Y103.723
G1 F3000 X126.995 Y97.665 E42.92907
G1 X126.893 Y97.416 E42.94249
G1 X126.47 Y97.416 E42.9636
G1 X123.678 Y98.304 E43.10976
G1 X120.886 Y97.416 E43.25593
G1 X120.708 Y97.416 E43.26481
G1 X117.916 Y98.304 E43.41098
G1 X115.124 Y97.416 E43.55715
G1 X114.715 Y97.416 E43.57756
G1 X114.613 Y97.665 E43.59098
G1 X120.803 Y103.723 E44.02309
G0 F3600 X120.945 Y103.584
G0 X120.737 Y103.797
G0 X112.872 Y96.711
G0 X99.737 Y111.909
G0 X99.609 Y111.707
G1 F3000 X106.99 Y102.406 E44.61548
G1 X106.881 Y102.18 E44.62799
G1 X106.411 Y102.18 E44.65144
G1 X103.058 Y103.551 E44.83217
G1 X99.705 Y102.18 E45.01289
G1 X99.501 Y102.18 E45.02307
G1 X96.143 Y103.551 E45.20403
G1 X92.791 Y102.18 E45.38471
G1 X92.339 Y102.18 E45.40726
G1 X92.229 Y102.406 E45.4198
G1 X99.609 Y111.707 E45.92922
G0 F3600 X99.733 Y111.551
G0 X99.502 Y111.733
G0 X87.662 Y96.702
G0 X79.362 Y104.175
G0 X78.346 Y103.794
G0 X78.416 Y103.723
G1 F3000 X84.607 Y97.665 E46.36137
G1 X84.505 Y97.416 E46.37479
G1 X84.082 Y97.416 E46.39589
G1 X81.29 Y98.304 E46.54206
G1 X78.498 Y97.416 E46.68823
G1 X78.32 Y97.416 E46.69711
G1 X75.528 Y98.304 E46.84328
G1 X72.737 Y97.416 E46.9894
G1 X72.327 Y97.416 E47.00986
G1 X72.225 Y97.665 E47.02328
G1 X78.416 Y103.723 E47.45542
G0 F3600 X78.558 Y103.584
G0 X78.35 Y103.797
G0 X84.882 Y97.722
G0 X84.312 Y97.181
G0 X81.29 Y97.476
;TYPE:SKIN
G1 F3000 X78.621 Y96.626 E47.59517
G1 X78.198 Y96.626 E47.61627
G1 X75.528 Y97.475 E47.75605
G1 X72.859 Y96.626 E47.89578
G1 X71.797 Y96.626 E47.94877
G1 X71.644 Y97 E47.96893
G1 X61.103 Y87.49 E48.67722
G1 X139.419 Y87.49 E52.58442
G1 X127.927 Y97.858 E53.35661
G1 X127.422 Y96.626 E53.42303
G1 X126.347 Y96.626 E53.47667
G1 X123.678 Y97.476 E53.61641
G1 X121.009 Y96.626 E53.75616
G1 X120.585 Y96.626 E53.77731
G1 X117.916 Y97.476 E53.91706
G1 X115.247 Y96.626 E54.05681
G1 X114.185 Y96.626 E54.10979
G1 X114.032 Y97 E54.12995
G1 X112.8 Y95.887 E54.21278
G1 X107.803 Y102.272 E54.61729
G1 X107.377 Y101.39 E54.66615
G1 X106.256 Y101.39 E54.72208
G1 X103.058 Y102.698 E54.89446
G1 X99.86 Y101.39 E55.06684
G1 X99.346 Y101.39 E55.09248
G1 X96.143 Y102.698 E55.26509
G1 X92.946 Y101.39 E55.43742
G1 X92.049 Y101.39 E55.48217
G1 X87.734 Y95.878 E55.83141
G1 X85.539 Y97.858 E55.97889
G1 X85.034 Y96.626 E56.04532
G1 X83.959 Y96.626 E56.09895
G1 X81.29 Y97.476 E56.2387
G0 F3600 X61.648 Y87.669
G1 F3000 X62.363 Y88.385 E56.28918
G0 F3600 X62.214 Y87.669
G1 F3000 X68.138 Y93.594 E56.70718
G1 X68.208 Y93.664
G0 F3600 X71.641 Y96.532
G1 F3000 X62.779 Y87.669 E57.33248
G0 F3600 X63.345 Y87.669
G1 F3000 X72.12 Y96.445 E57.95164
G0 F3600 X72.686 Y96.445
G1 F3000 X63.911 Y87.669 E58.5708
G0 F3600 X64.476 Y87.669
G1 F3000 X73.421 Y96.614 E59.20192
G1 X73.491 Y96.684
G0 F3600 X74.251 Y96.879
G1 F3000 X65.042 Y87.669 E59.8517
G0 F3600 X65.608 Y87.669
G1 F3000 X75.081 Y97.143 E60.5201
G0 F3600 X75.725 Y97.221
G1 F3000 X66.173 Y87.669 E61.19405
G0 F3600 X66.739 Y87.669
G1 F3000 X76.154 Y97.085 E61.85836
G0 F3600 X76.584 Y96.949
G1 F3000 X67.305 Y87.669 E62.51308
G0 F3600 X67.87 Y87.669
G1 F3000 X77.013 Y96.812 E63.15817
G0 F3600 X77.443 Y96.676
G1 F3000 X68.436 Y87.669 E63.79366
G0 F3600 X69.002 Y87.669
G1 F3000 X77.872 Y96.539 E64.41949
G0 F3600 X78.343 Y96.445
G1 F3000 X69.567 Y87.669 E65.03868
G0 F3600 X70.133 Y87.669
G1 F3000 X79.03 Y96.566 E65.66641
G1 X79.1 Y96.636
G0 F3600 X79.859 Y96.83
G1 F3000 X70.699 Y87.669 E66.31274
G0 F3600 X71.265 Y87.669
G1 F3000 X80.69 Y97.094 E66.97772
G0 F3600 X81.409 Y97.248
G1 F3000 X71.83 Y87.669 E67.65357
G0 F3600 X72.396 Y87.669
G1 F3000 X81.838 Y97.111 E68.31976
G0 F3600 X82.266 Y96.974
G1 F3000 X72.962 Y87.669 E68.97624
G0 F3600 X73.527 Y87.669
G1 F3000 X82.696 Y96.838 E69.62316
G0 F3600 X83.124 Y96.701
G1 F3000 X74.093 Y87.669 E70.26038
G0 F3600 X74.659 Y87.669
G1 F3000 X83.553 Y96.564 E70.88794
G0 F3600 X84 Y96.445
G1 F3000 X75.224 Y87.669 E71.50713
G0 F3600 X75.79 Y87.669
G1 F3000 X84.565 Y96.445 E72.12629
G0 F3600 X85.131 Y96.445
G1 F3000 X76.356 Y87.669 E72.74545
G0 F3600 X76.921 Y87.669
G1 F3000 X86.236 Y96.984 E73.40267
G0 F3600 X86.533 Y96.715
G1 F3000 X77.487 Y87.669 E74.04092
G0 F3600 X78.053 Y87.669
G1 F3000 X86.831 Y96.447 E74.66025
G0 F3600 X87.128 Y96.179
G1 F3000 X78.618 Y87.669 E75.26068
G0 F3600 X79.184 Y87.669
G1 F3000 X87.425 Y95.911 E75.84216
G0 F3600 X87.722 Y95.642
G1 F3000 X79.75 Y87.669 E76.40466
G0 F3600 X80.316 Y87.669
G1 F3000 X94.461 Y101.815 E77.40271
G1 X94.531 Y101.885
G0 F3600 X93.504 Y101.424
G1 F3000 X87.974 Y95.894 E77.79288
G1 X87.904 Y95.824
G0 F3600 X85.938 Y97.252
G1 F3000 X85.169 Y96.483 E77.84713
G1 X85.099 Y96.413
G0 F3600 X85.562 Y97.442
G1 F3000 X85.641 Y97.521 E77.85271
G0 F3600 X87.662 Y96.702
G0 X90.013 Y98.499
G1 F3000 X92.724 Y101.209 E78.04395
G0 F3600 X92.158 Y101.209
G1 F3000 X92.053 Y101.104 E78.05136
G0 F3600 X95.418 Y102.206
G1 F3000 X80.881 Y87.669 E79.07702
G0 F3600 X81.447 Y87.669
G1 F3000 X96.24 Y102.462 E80.12075
G0 F3600 X96.641 Y102.298
G1 F3000 X82.013 Y87.669 E81.15287
G0 F3600 X82.578 Y87.669
G1 F3000 X97.044 Y102.135 E82.17352
G0 F3600 X97.445 Y101.971
G1 F3000 X83.144 Y87.669 E83.18257
G0 F3600 X83.71 Y87.669
G1 F3000 X97.847 Y101.807 E84.18005
G0 F3600 X98.248 Y101.643
G1 F3000 X84.275 Y87.669 E85.16595
G0 F3600 X84.841 Y87.669
G1 F3000 X98.65 Y101.479 E86.14029
G0 F3600 X99.052 Y101.315
G1 F3000 X85.407 Y87.669 E87.10305
G0 F3600 X85.972 Y87.669
G1 F3000 X99.512 Y101.209 E88.05837
G0 F3600 X100.206 Y101.337
G1 F3000 X86.538 Y87.669 E89.02272
G0 F3600 X87.104 Y87.669
G1 F3000 X101.163 Y101.729 E90.0147
G1 X101.233 Y101.799
G0 F3600 X102.121 Y102.121
G1 F3000 X87.669 Y87.669 E91.03436
G0 F3600 X88.235 Y87.669
G1 F3000 X103.065 Y102.5 E92.08073
G0 F3600 X103.467 Y102.336
G1 F3000 X88.801 Y87.669 E93.11553
G0 F3600 X89.366 Y87.669
G1 F3000 X103.869 Y102.171 E94.13876
G0 F3600 X104.27 Y102.007
G1 F3000 X89.932 Y87.669 E95.15039
G0 F3600 X90.498 Y87.669
G1 F3000 X104.672 Y101.843 E96.15044
G0 F3600 X105.073 Y101.679
G1 F3000 X91.064 Y87.669 E97.13889
G0 F3600 X91.629 Y87.669
G1 F3000 X105.474 Y101.515 E98.11576
G0 F3600 X105.876 Y101.351
G1 F3000 X92.195 Y87.669 E99.08106
G0 F3600 X92.761 Y87.669
G1 F3000 X106.301 Y101.21 E100.03642
G0 F3600 X106.867 Y101.21
G1 F3000 X93.326 Y87.669 E100.99181
G0 F3600 X93.892 Y87.669
G1 F3000 X107.432 Y101.21 E101.94717
G1 X107.541 Y101.319
G1 X107.978 Y101.755 E101.97796
G0 F3600 X108.226 Y101.438
G1 F3000 X94.458 Y87.669 E102.94941
G0 F3600 X95.023 Y87.669
G1 F3000 X108.475 Y101.121 E103.89852
G0 F3600 X108.723 Y100.803
G1 F3000 X95.589 Y87.669 E104.82519
G0 F3600 X96.155 Y87.669
G1 F3000 X108.971 Y100.486 E105.72946
G0 F3600 X109.219 Y100.168
G1 F3000 X96.72 Y87.669 E106.61134
G0 F3600 X97.286 Y87.669
G1 F3000 X109.468 Y99.851 E107.47084
G0 F3600 X109.716 Y99.534
G1 F3000 X97.852 Y87.669 E108.30795
G0 F3600 X98.417 Y87.669
G1 F3000 X109.965 Y99.216 E109.12269
G0 F3600 X110.213 Y98.9
G1 F3000 X98.983 Y87.669 E109.91506
G0 F3600 X99.549 Y87.669
G1 F3000 X110.462 Y98.582 E110.68503
G0 F3600 X110.71 Y98.265
G1 F3000 X100.115 Y87.669 E111.4326
G0 F3600 X100.68 Y87.669
G1 F3000 X110.958 Y97.947 E112.15777
G0 F3600 X111.207 Y97.63
G1 F3000 X101.246 Y87.669 E112.86057
G0 F3600 X101.812 Y87.669
G1 F3000 X111.455 Y97.313 E113.54097
G0 F3600 X111.703 Y96.995
G1 F3000 X102.377 Y87.669 E114.19897
G0 F3600 X102.943 Y87.669
G1 F3000 X111.951 Y96.678 E114.83457
G0 F3600 X112.2 Y96.361
G1 F3000 X103.509 Y87.669 E115.4478
G0 F3600 X104.074 Y87.669
G1 F3000 X112.449 Y96.044 E116.0387
G0 F3600 X112.697 Y95.726
G1 F3000 X104.64 Y87.669 E116.60717
G0 F3600 X105.206 Y87.669
G1 F3000 X114.04 Y96.504 E117.23049
G0 F3600 X114.547 Y96.445
G1 F3000 X105.771 Y87.669 E117.84968
G0 F3600 X106.337 Y87.669
G1 F3000 X115.113 Y96.445 E118.46888
G0 F3600 X115.867 Y96.634
G1 F3000 X106.903 Y87.669 E119.10137
G0 F3600 X107.468 Y87.669
G1 F3000 X116.698 Y96.899 E119.7526
G1 X116.768 Y96.969
G0 F3600 X117.528 Y97.163
G1 F3000 X108.034 Y87.669 E120.42245
G0 F3600 X108.6 Y87.669
G1 F3000 X118.144 Y97.213 E121.09583
G0 F3600 X118.573 Y97.077
G1 F3000 X109.165 Y87.669 E121.75962
G0 F3600 X109.731 Y87.669
G1 F3000 X119.002 Y96.94 E122.41374
G0 F3600 X119.431 Y96.803
G1 F3000 X110.297 Y87.669 E123.05819
G0 F3600 X110.863 Y87.669
G1 F3000 X119.86 Y96.667 E123.69301
G0 F3600 X120.289 Y96.53
G1 F3000 X111.428 Y87.669 E124.3182
G0 F3600 X111.994 Y87.669
G1 F3000 X120.77 Y96.445 E124.9374
G0 F3600 X121.475 Y96.585
G1 F3000 X112.56 Y87.669 E125.56643
G0 F3600 X113.125 Y87.669
G1 F3000 X122.305 Y96.849 E126.21413
G1 X122.375 Y96.919
G0 F3600 X123.135 Y97.114
G1 F3000 X113.691 Y87.669 E126.88049
G0 F3600 X114.257 Y87.669
G1 F3000 X123.825 Y97.238 E127.5556
G0 F3600 X124.254 Y97.102
G1 F3000 X114.822 Y87.669 E128.22112
G0 F3600 X115.388 Y87.669
G1 F3000 X124.684 Y96.965 E128.877
G0 F3600 X125.113 Y96.829
G1 F3000 X115.954 Y87.669 E129.52325
G0 F3600 X116.519 Y87.669
G1 F3000 X125.542 Y96.692 E130.15987
G0 F3600 X125.971 Y96.555
G1 F3000 X117.085 Y87.669 E130.78683
G0 F3600 X117.651 Y87.669
G1 F3000 X126.427 Y96.445 E131.40602
G0 F3600 X126.992 Y96.445
G1 F3000 X118.216 Y87.669 E132.02522
G0 F3600 X118.782 Y87.669
G1 F3000 X128.347 Y97.234 E132.70008
G0 F3600 X128.644 Y96.966
G1 F3000 X119.348 Y87.669 E133.356
G0 F3600 X119.913 Y87.669
